packages/ffe-icons/icons/filled/sm/all_inclusive.svg

<svg xmlns="http://www.w3.org/2000/svg" height="20" viewBox="0 -960 960 960" width="20"><path d="M216.599-274.001q-86.417 0-146.508-59.85-60.09-59.85-60.09-145.884 0-86.034 60.094-146.149 60.095-60.115 146.481-60.115 34.391 0 66.023 11.923 31.631 11.923 57.477 34.769l87.463 76.385-39.384 34.153-81.231-71.924q-18.539-16.077-41.353-24.692-22.815-8.616-47.362-8.616-64.715 0-110.463 45.035-45.747 45.035-45.747 109.116t45.747 109.466q45.748 45.385 110.463 45.385 24.547 0 47.362-8.616 22.814-8.615 41.353-24.692l313-281q25.461-22.231 57.194-34.462 31.733-12.23 66.267-12.23 86.402 0 146.508 60.029 60.106 60.029 60.106 145.935 0 86.804-60.509 146.419-60.508 59.615-147.49 59.615-34.372 0-65.609-12.115-31.237-12.115-57.467-34.577l-87.693-77.385 40.614-33.537 81.231 72.308q18.539 16.538 41.353 24.923 22.815 8.385 47.362 8.385 64.715 0 110.463-45.035 45.747-45.035 45.747-109.116t-45.747-109.466q-45.748-45.385-110.463-45.385-24.547 0-47.362 8.616-22.814 8.615-41.353 24.692L340.317-320.772q-25.702 23.31-57.441 35.041-31.738 11.73-66.277 11.73Z"/></svg>

<svg xmlns="http://www.w3.org/2000/svg" height="20" viewBox="0 -960 960 960" width="20"><path d="M216.6-274q-86.42 0-146.51-59.85Q10-393.7 10-479.73q0-86.04 60.1-146.15Q130.19-686 216.58-686q34.39 0 66.02 11.92 31.63 11.93 57.48 34.77l87.46 76.39-39.38 34.15-81.24-71.92q-18.53-16.08-41.35-24.7-22.81-8.61-47.36-8.61-64.72 0-110.46 45.03Q62-543.93 62-479.85q0 64.08 45.75 109.47Q153.49-325 218.21-325q24.55 0 47.36-8.61 22.82-8.62 41.35-24.7l313-281q25.47-22.23 57.2-34.46Q708.85-686 743.38-686q86.41 0 146.51 60.03Q950-565.94 950-480.03q0 86.8-60.51 146.41Q828.98-274 742-274q-34.37 0-65.61-12.12-31.24-12.11-57.47-34.57l-87.69-77.39 40.61-33.54 81.24 72.31q18.53 16.54 41.35 24.93 22.81 8.38 47.36 8.38 64.72 0 110.46-45.03Q898-416.07 898-480.15q0-64.08-45.75-109.47Q806.51-635 741.79-635q-24.55 0-47.36 8.61-22.82 8.62-41.35 24.7L340.32-320.77q-25.71 23.31-57.44 35.04Q251.14-274 216.6-274Z"/></svg>
